X:1
T:Polka FCBb
T:Hanny Christen. Bd.VIII Zug, Luzern, Uri I. S.140 (wz09732) orig. F,C,Bb-Dur
T: Tänze auch Escholzmatt (Luzern)
M:2/4
L:1/16
K:F 
"F"AGAB c2c2 | c=Bcf a4 | a2^ga ba=gf | "C7"f2e2 e4 | G^FGA B2B2 | BABe  g4 | g^fg=f edcB | 
"F"d2c2 A4 | AGAB c2c2 | c=Bcf a4 | a2^ga ba=gf | "Bb"e2d2 d4 | "C7"dcdc e2e2 | "F"dcdc f2f2 | 
"C7"eded cBAG | "F"F2f2 f2 z2 || [K:C] "C"gece gc'ba | agg^f g2e2 | "G7"gffe f2d2 | "C"fee^d e2c2 | gece gc'ba | 
agg^f g2e2 | "G7"gffe f2d2 | "C".c4c4 || [K:F] gag^f "C7"g2c2 | "F"f2f2 f4 | "C7"e3d c2b2 | "F"a4f4 | 
"C7"gag^f g2c2 | "F"fgfe f2c2 | "C7"^cdd2 ^dee2 | "F"f2a2 f2 "_fine"z2 |:[K:Bb] "Bb"dfff g3f | "F7"f2e2 A4 | eggg a3g | 
"Bb"g2f2 B4 | fdfb d'c'ba | "Eb"ageg c'bag |1 "F7"gf=ef agf_e | "Bb"=d3b f4 :|2 "F7"gf=ef agfA | "Bb"B2d2 B2 z2 |]  

